svgs/sharp-solid/hourglass-start.svg

<svg xmlns="http://www.w3.org/2000/svg" viewBox="0 0 384 512"><!--! Font Awesome Pro 6.6.0 by @fontawesome - https://fontawesome.com License - https://fontawesome.com/license (Commercial License) Copyright 2024 Fonticons, Inc. --><path d="M0 0L32 0 352 0l32 0 0 64-32 0 0 64 0 13.3-9.4 9.4L237.3 256 342.6 361.4l9.4 9.4 0 13.3 0 64 32 0 0 64-32 0L32 512 0 512l0-64 32 0 0-64 0-13.3 9.4-9.4L146.7 256 41.4 150.6 32 141.3 32 128l0-64L0 64 0 0zM96 397.3L96 448l192 0 0-50.7-96-96-96 96z"/></svg>

<svg xmlns="http://www.w3.org/2000/svg" viewBox="0 0 384 512"><!--! Font Awesome Pro 6.4.2 by @fontawesome - https://fontawesome.com License - https://fontawesome.com/license (Commercial License) Copyright 2023 Fonticons, Inc. --><path d="M0 0H32 352h32V64H352v64 13.3l-9.4 9.4L237.3 256 342.6 361.4l9.4 9.4V384v64h32v64H352 32 0V448H32V384 370.7l9.4-9.4L146.7 256 41.4 150.6 32 141.3V128 64H0V0zM96 397.3V448H288V397.3l-96-96-96 96z"/></svg>
